public_html/assets/sprite/fire.svg

<?xml version="1.0" encoding="UTF-8"?>
<svg width="43px" height="50px" viewBox="0 0 43 50" version="1.1" xmlns="http://www.w3.org/2000/svg" xmlns:xlink="http://www.w3.org/1999/xlink">
    <!-- Generator: Sketch 40.3 (33839) - http://www.bohemiancoding.com/sketch -->
    <title>Artboard</title>
    <desc>Created with Sketch.</desc>
    <defs></defs>
    <g id="Page-1" stroke="none" stroke-width="1" fill="none" fill-rule="evenodd">
        <g id="Artboard" fill="#000000">
            <g id="fire" transform="translate(2.000000, 1.000000)">
                <path d="M20.07,0 L18.76,1.1 C15.3996125,3.88421797 12.2848104,6.9521809 9.45,10.27 C4.81,15.71 0.01,22.87 0.01,30.39 C-0.092842085,35.40176 2.09375368,40.1872389 5.95,43.39 C9.68880835,46.2937145 14.2762977,47.8919592 19.01,47.94 C19.34,47.94 19.67,48 20.01,48 C20.35,48 20.68,48 21.01,47.94 C25.7517811,47.8826896 30.3435937,46.2701097 34.08,43.35 C37.9337112,40.1461933 40.1167711,35.3603959 40.01,30.35 C40.01,23.58 35.18,16.54 30.57,10.91 C27.7270345,7.4497245 24.6569161,4.18250391 21.38,1.13 L20.07,0 Z M19.95,5.44 C22.6513358,7.89256165 25.158822,10.550497 27.45,13.39 C31.85,18.76 36.01,25.61 36.01,30.39 C36.1216587,34.2498434 34.4374249,37.9433387 31.45,40.39 C30.750852,40.9710429 29.9973744,41.4834077 29.2,41.92 C29.7166668,40.753882 29.9921883,39.4953268 30.01,38.22 C30.0900093,31.0859025 27.7295789,24.1386864 23.32,18.53 L19.69,14.53 L19.82,19.85 C19.815209,21.4847546 19.7116872,23.1177276 19.51,24.74 C19.4034874,25.7839703 19.1718245,26.8113451 18.82,27.8 C18.770913,27.9083421 18.7069644,28.0093136 18.63,28.1 C18.088176,27.8659232 17.5985904,27.5259332 17.19,27.1 C16.7767212,26.6819572 16.3987635,26.2304148 16.06,25.75 L14.12,22.82 L12.63,26 C10.9049807,29.8395627 10.0120842,34.000733 10.01,38.21 C10.0243168,39.4953913 10.2999018,40.7644433 10.82,41.94 C10.0223979,41.50378 9.26888542,40.9913916 8.57,40.41 C5.57691377,37.959003 3.89207311,34.2567874 4.01,30.39 C4.01,24.6 8.21,17.91 12.57,12.78 C14.7919939,10.1084884 17.2594475,7.65107878 19.94,5.44 L19.95,5.44 Z M23.32,26 C25.118498,29.8211619 26.0376932,33.9968369 26.01,38.22 C26.01,41.5337085 23.3237085,44.22 20.01,44.22 C16.6962915,44.22 14.01,41.5337085 14.01,38.22 C14.0273665,35.6285543 14.4283825,33.0539642 15.2,30.58 C16.1600758,31.5577139 17.4603854,32.127271 18.83,32.17 C19.7391345,32.1504669 20.6086432,31.7941109 21.27,31.17 C21.7875504,30.6477264 22.1925522,30.0249086 22.46,29.34 C22.8876152,28.2809611 23.1799229,27.172208 23.33,26.04 L23.32,26 Z" id="d05be7f7-0127-41a3-ad82-028ada9e886d"></path>
            </g>
        </g>
    </g>
</svg>

<svg id="9728ed56-b7d1-4936-98a1-fc8a2c8c3de9" data-name="Layer 1" xmlns="http://www.w3.org/2000/svg" viewBox="0 0 40.01 48"><title>fire</title><path id="d05be7f7-0127-41a3-ad82-028ada9e886d" data-name="иконка" d="M20.06,0,18.75,1.1a76.14,76.14,0,0,0-9.31,9.17C4.8,15.71,0,22.87,0,30.39a16.46,16.46,0,0,0,5.94,13A21.65,21.65,0,0,0,19,47.94c.33,0,.66.06,1,.06s.67,0,1-.06a21.65,21.65,0,0,0,13.07-4.59,16.45,16.45,0,0,0,5.93-13c0-6.77-4.83-13.81-9.44-19.44a100.93,100.93,0,0,0-9.19-9.78Zm-.12,5.44a70.72,70.72,0,0,1,7.5,7.95c4.4,5.37,8.56,12.22,8.56,17a12.46,12.46,0,0,1-4.56,10,14.16,14.16,0,0,1-2.25,1.53A9.46,9.46,0,0,0,30,38.22a31.29,31.29,0,0,0-6.69-19.69l-3.63-4,.13,5.32a40.6,40.6,0,0,1-.31,4.89,13.09,13.09,0,0,1-.69,3.06,1.28,1.28,0,0,1-.19.3,4.43,4.43,0,0,1-1.44-1,10.65,10.65,0,0,1-1.13-1.35l-1.94-2.93L12.62,26A29.83,29.83,0,0,0,10,38.21a9.48,9.48,0,0,0,.81,3.73,14.09,14.09,0,0,1-2.25-1.53A12.46,12.46,0,0,1,4,30.39c0-5.79,4.2-12.48,8.56-17.61a55.62,55.62,0,0,1,7.37-7.34ZM23.31,26A28.26,28.26,0,0,1,26,38.22a6,6,0,0,1-12,0,26.25,26.25,0,0,1,1.19-7.64,5.32,5.32,0,0,0,3.63,1.59,3.67,3.67,0,0,0,2.44-1,5.38,5.38,0,0,0,1.19-1.83,13.58,13.58,0,0,0,.87-3.3Z" transform="translate(0.01)"/></svg>
